webapp/client/src/assets/icons/religion_icon.svg

<svg width="37" height="40" viewBox="0 0 37 40" fill="none" xmlns="http://www.w3.org/2000/svg">
<path d="M18.446 0.60111C18.2564 0.608686 18.0703 0.65526 17.8995 0.737929C17.7286 0.820598 17.5766 0.937589 17.4529 1.08161L9.16267 10.7564C8.94683 11.0071 8.82809 11.327 8.82804 11.658V23.2817L0.5 28.4484L1.95727 30.8023L3.3012 29.9709V39.3001H17.1183V32.3896C17.1183 31.6115 17.7222 31.0075 18.5 31.0075C19.2778 31.0075 19.8817 31.6115 19.8817 32.3896V39.3001H33.6988V29.9709L35.0427 30.8023L36.5 28.4484L28.172 23.2817V11.658C28.1719 11.327 28.0532 11.0071 27.8373 10.7564L19.5471 1.08161C19.4115 0.923791 19.2421 0.798617 19.0515 0.715419C18.8608 0.632222 18.6539 0.593148 18.446 0.60111ZM18.5 4.10497L25.4085 12.1709V21.5703L19.2286 17.7371C18.991 17.59 18.7144 17.5185 18.4352 17.5319C18.2001 17.5426 17.9716 17.6132 17.7714 17.7371L11.5915 21.5703V12.1709L18.5 4.10497ZM18.5 11.658C18.1335 11.658 17.7821 11.8036 17.523 12.0628C17.2639 12.322 17.1183 12.6735 17.1183 13.0401C17.1183 13.4066 17.2639 13.7582 17.523 14.0174C17.7821 14.2766 18.1335 14.4222 18.5 14.4222C18.8665 14.4222 19.2179 14.2766 19.477 14.0174C19.7361 13.7582 19.8817 13.4066 19.8817 13.0401C19.8817 12.6735 19.7361 12.322 19.477 12.0628C19.2179 11.8036 18.8665 11.658 18.5 11.658ZM18.5 20.5391L30.9354 28.254V36.5359H22.6451V32.3896C22.6451 30.1159 20.773 28.2432 18.5 28.2432C16.227 28.2432 14.3549 30.1159 14.3549 32.3896V36.5359H6.06462V28.254L18.5 20.5391Z" fill="#0B0C0C"/>
</svg>

<svg width="37" height="40" viewBox="0 0 37 40" fill="none" xmlns="http://www.w3.org/2000/svg">
    <path d="M18.446.601a1.381 1.381 0 0 0-.993.48l-8.29 9.675c-.216.251-.335.571-.335.902v11.624L.5 28.448l1.457 2.354 1.344-.831v9.33h13.817V32.39c0-.779.604-1.383 1.382-1.383.778 0 1.382.604 1.382 1.383v6.91h13.817v-9.33l1.344.832 1.457-2.354-8.328-5.166V11.658c0-.331-.119-.65-.335-.902l-8.29-9.674a1.383 1.383 0 0 0-1.101-.48Zm.054 3.504 6.909 8.066v9.4l-6.18-3.834a1.381 1.381 0 0 0-1.458 0l-6.18 3.833v-9.4L18.5 4.106Zm0 7.553a1.381 1.381 0 1 0 0 2.763 1.381 1.381 0 0 0 0-2.763Zm0 8.881 12.435 7.715v8.282h-8.29V32.39c0-2.274-1.872-4.147-4.145-4.147-2.273 0-4.145 1.873-4.145 4.147v4.146h-8.29v-8.282L18.5 20.539Z"
          fill="#0B0C0C"/>
</svg>
